!!!COM: Haydn, Franz Joseph
!!!CDT: 1732/03/31-1809/05/31
!!!CNT: Austrian
!!!OTL: Sonata No. 52 in G major
!!!SCT: Hob. XVI:39
!!!OMV: 3
!!!OMD: Prestissimo.
!!!ODT: ~1779
**kern	**kern	**dynam
*staff2	*staff1	*staff1/2
*>[A,A,B,B]	*>[A,A,B,B]	*>[A,A,B,B]
*>norep[A,B]	*>norep[A,B]	*>norep[A,B]
*>A	*>A	*>A
*clefF4	*clefG2	*
*k[f#]	*k[f#]	*
*G:	*G:	*
*M6/8	*M6/8	*
*MM180	*MM180	*
=1-	=1-	=1-
!	!	!LO:DY:rj
4G` 4B`	8r	p
.	(8ggL	.
8r	8gJ)	.
4c` 4e`	8r	.
.	(16ggLL	.
.	16aaJ	.
8r	8gg`J)	.
=2	=2	=2
4B` 4d`	8r	.
.	(8ggL	.
8r	8gJ)	.
4A` 4c`	8r	.
.	(16ggLL	.
.	16aaJ	.
8r	8gg`J)	.
=3	=3	=3
4G` 4B`	8r	.
.	(8ggL	.
8r	8gJ)	.
(4.BB 4.B	8r	.
!	!	!LO:DY:rj
.	(16ff#LL	f
.	16gg	.
.	16bb	.
.	16ggJJ	.
=4	=4	=4
4.C 4.c	8ee`)	.
.	(16gg#LL	.
.	16aa	.
.	16ccc	.
.	16aaJJ	.
4.D 4.d	8dd`L)	.
.	8dd` 8ddd`	.
.	8cc` 8ccc`J	.
=5	=5	=5
4.GG 4.G)	8cc (8cccL	.
.	8b 8bb)	.
.	8a` 8aa`J	.
(4.BB 4.B	8g` 8gg`	.
.	(16ff#LL	.
.	16gg	.
.	16bb	.
.	16ggJJ	.
!!LO:LB:g=z
=6	=6	=6
4.C 4.c	8ee`)	.
.	(16gg#LL	.
.	16aa	.
.	16ccc	.
.	16aaJJ	.
4.D 4.d	8dd`L)	.
.	8dd` 8ddd`	.
.	8cc` 8ccc`J	.
=7	=7	=7
4.GG 4.G)	4.b 4.bb	.
*clefG2	*	*
4B 4d	8r	p
.	(16ff#LL	.
.	16gg	.
8r	16bb	.
.	16ggJJ	.
=8	=8	=8
4c 4e	8ee`)	.
.	(16gg#LL	.
.	16aa	.
8r	16ccc	.
.	16aaJJ	.
4d	8dd`L)	.
.	8ddd`	.
8f#`	8aa` 8ccc`J	.
=9	=9	=9
(8gL	8aa (8cccL	.
8b	8gg 8bb	.
8ddJ)	8ff# 8aaJ)	.
4r	8dd`L	.
.	8ccc`	.
8g`	8bb`J	.
=10	=10	=10
.	(bb8qqP	.
4cc (4ee	(4aap)	.
8b 8dd)	8gg)	.
4r	8dd`L	.
.	8ddd`	.
8f#`	8aa` 8ccc`J	.
=11	=11	=11
(8gL	8aa (8cccL	.
8b	8gg 8bb	.
8ddJ)	8ff# 8aaJ)	.
4r	8dd`L	.
.	8ccc`	.
8g`	8bb`J	.
!!LO:LB:g=z
=12	=12	=12
*^	*	*
.	.	(bb8qqP	.
4cc (4ee	4.ryy	(4aap)	.
8b 8dd)	.	8gg)	.
4a (4cc	4.d	(16ff#LL	.
.	.	16dd	.
.	.	16ff#	.
.	.	16ddJ	.
8g 8b)	.	8gg`J)	.
=13	=13	=13	=13
*	*	*^	*
4f# (4a	4.d	(8cccL	16aaLL	<
.	.	.	16dd	.
.	.	8ccc	16aa	.
.	.	.	16ddJ	.
8g 8b)	.	8bbJ)	8ggJ	.
4a (4cc	4.d	4.ryy	(16ff#LL	.
.	.	.	16dd	.
.	.	.	16ff#	.
.	.	.	16ddJ	.
8g 8b)	.	.	8gg`J)	.
=14	=14	=14	=14	=14
4f# (4a	4.d	(8cccL	16aaLL	.
.	.	.	16dd	.
.	.	8ccc	16aa	.
.	.	.	16ddJ	.
8g 8b)	.	8bb`J)	8ggJ	.
4a (4cc	4.d	4.ryy	(16ff#LL	.
.	.	.	16dd	.
.	.	.	16ff#	.
.	.	.	16ddJ	.
8g 8b)	.	.	8gg`J)	.
=15	=15	=15	=15	=15
4f# (4a	4.d	(8cccL	16aaLL	f
.	.	.	16dd	.
.	.	8ccc	16aa	.
.	.	.	16ddJ	.
8g)	.	8bb`J)	8ggJ	.
4f# (4a	4.d	(8cccL	16aaLL	.
.	.	.	16dd	.
.	.	8ccc	16aa	.
.	.	.	16ddJ	.
8g)	.	8bb`J)	8ggJ	.
*v	*v	*	*	*
*	*v	*v	*
=16	=16	=16
8d` 8f#` 8a`L	8ff#` 8aa`L	.
8d 8f# 8a	8ff# 8ddd	.
8d 8f# 8aJ	8ff# 8dddJ	.
4d 4f# 4a	4ff# 4ddd	.
8r	8r	.
*clefF4	*	*
!!LO:LB:g=z
=17	=17	=17
8r	4ff#` 4aa`	f
!	!	!LO:DY:b=2:rj
(8DL	.	f
8DDJ)	8r	.
8r	4ff#` 4ddd`	.
(16dLL	.	.
16c#J	.	.
8d`J)	8r	.
=18	=18	=18
8r	4gg` 4bb`	.
(8DL	.	.
8DDJ)	8r	.
8r	4cc#` 4gg`	.
(16dLL	.	.
16c#J	.	.
8d`J)	8r	.
=19	=19	=19
8r	4dd` 4ff#`	.
(8DL	.	.
8DDJ)	8r	.
8r	4ff# 4ddd	.
(16dLL	.	.
16c#J	.	.
8d`J)	8r	.
=20	=20	=20
8r	4gg 4bb	.
(8DL	.	.
8DDJ)	8r	.
8r	4cc# 4gg	.
(16dLL	.	.
16c#J	.	.
8d`J)	8r	.
=21	=21	=21
8r	4dd 4ff#	.
(8DL	.	.
8DDJ)	8r	.
8r	4ff# 4ddd	.
(16BLL	.	.
16A#J	.	.
8B`J)	8r	.
=22	=22	=22
8r	4dd 4ee	.
(16GLL	.	.
16F#J	.	.
8G`J)	8r	.
8r	4dd 4bb	.
(16G#LL	.	.
16F#J	.	.
8G#`J)	8r	.
!!LO:LB:g=z
=23	=23	=23
(8AL	(16cc#LL	f
.	16a	.
8B	16dd	.
.	16a	.
8c#J	16ee	.
.	16aJJ	.
8dL	16ff#LL	.
.	16a	.
8c#J)	16ee	.
.	16a	.
8r	16aa	.
.	16aJJ)	.
=24	=24	=24
(8AL	(16cc#LL	p
.	16a	.
8B	16dd	.
.	16a	.
8c#J	16ee	.
.	16aJJ	.
8dL	16ff#LL	.
.	16a	.
8c#J)	16ee	.
.	16a	.
8r	16aa	.
.	16aJJ)	.
=25	=25	=25
(8AL	(16cc#LL	f
.	16a	.
8B	16dd	.
.	16a	.
8c#J	16ee	.
.	16aJJ	.
*clefG2	*	*
8dL	16ff#LL	.
.	16a	.
8e	16ggn	.
.	16a	.
8f#J)	16aa	.
.	16aJJ)	.
=26	=26	=26
(4.g	(16bbLL	.
.	16gg	.
.	16ff#	.
.	16ee	.
.	16dd#	.
.	16eeJJ	.
4.f#	16aaLL	.
.	16ff#	.
.	16ee	.
.	16ddn	.
.	16cc#	.
.	16ddJJ)	.
!!LO:LB:g=z
=27	=27	=27
4.e) 4.g# 4.b	(16dddLL	.
.	16eee	.
.	16ddd	.
.	16ccc#	.
.	16bb	.
.	16aaJJ	.
4r	16gg#LL	.
.	16ff#	.
.	16ee	.
.	16dd	.
8r	16cc#	.
.	16bJJ)	.
=28	=28	=28
4.A 4.c# 4.e 4.gn	(16ggnLL	.
.	16aa	.
.	16gg	.
.	16ff#	.
.	16ee	.
.	16ddJJ	.
4r	16cc#LL	.
.	16b	.
.	16a	.
.	16g	.
8r	16f#	.
.	16eJJ	.
*clefF4	*	*
=29	=29	=29
(8DL	(16f#LL)	.
.	16d	.
8E	16g	.
.	16d	.
8F#J	16a	.
.	16dJJ	.
8GL	16bLL	.
.	16d	.
8A	16cc#	.
.	16dJJ	.
8BJ	8dd`)	.
=30	=30	=30
4.A)	[4.d [4.f#	p
4.AA	((8d] 8f#L]	.
.	8e 8g))	.
.	8c#` 8e`J	.
=31	=31	=31
*^	*	*
4.ryy	4D	4d	.
.	8r	8dd'	.
[4.d	(4G	(8eL	.
.	.	8g	.
.	8A	8f#J	.
!!LO:LB:g=z
=32	=32	=32	=32
4.d]	4B	8aL	.
.	.	8g)	.
.	8A)	8f#`J	.
[4.d	(4G	(8eL	.
.	.	8b	.
.	8A	8f#J	.
=33	=33	=33	=33
4.d]	4B	8aL	.
.	.	8g)	.
.	8A)	8f#`J	.
[4.d	(4G#	(8eL	.
.	.	8dd	.
.	8A	8f#J	.
=34	=34	=34	=34
4.d]	4.B)	8aL	<
.	.	8g#)	.
.	.	[8bJ	.
(4.e	(4.c#	(8b]L	.
.	.	8a)	.
.	.	[8ggnJ	[
=35	=35	=35	=35
4.d)	4.d)	16ggLL]	f
.	.	(16ff#	.
.	.	16aa	.
.	.	16gg	.
.	.	16ff#	.
.	.	16eeJJ	.
4.ryy	4.F# (4.A	16ddLL	.
.	.	16cc#	.
.	.	16b	.
.	.	16a	.
.	.	16g	.
.	.	16f#JJ	.
*v	*v	*	*
=36	=36	=36
4G 4B)	8eL)	>
.	8bb` 8ddd`	.
8r	8aa` 8ccc#`J	.
4r	8gg` 8bb`L	.
.	8ff#` 8aa`	.
8r	8ee` 8gg`J	]]
=37	=37	=37
4.A 4.d	(8ff#sSsSL	mf
.	8aa)	.
.	8dd`J	.
4.A 4.c#	(8eesSSSL	.
.	8gg)	.
.	8cc#`J	.
!!LO:LB:g=z
=38	=38	=38
8BB' 8B'L	(16ddLL	f
.	16ee	.
8AA' 8A'	16cc#	.
.	16ddJ	.
8GG' 8G'J	8b`J)	.
8FF#' 8F#'L	(16aLL	.
.	16b	.
8EE' 8E'	16g	.
.	16aJ	.
8DD' 8D'J	8f#`J)	.
=39	=39	=39
2.GG 2.G	8e`L	<
.	8g`	.
.	8b`J	.
.	8ee`L	.
.	(8ggsSSs	.
.	8bb`J)	[
=40	=40	=40
4.A 4.f#	(8aaL	>
.	8ff#	.
.	8ddJ)	.
4.A 4.e	(8ggL	.
.	8ee	.
.	8cc#J)	]]
=41	=41	=41
(8dL	(8ddL	p
8A	8a	.
8F#J)	8f#J)	.
(8BL	(8bL	.
8G	8g	.
8EJ)	8eJ)	.
=42	=42	=42
(8AL	(8aL	.
8F#	8f#	.
8DJ	8dJ	.
8AAL	8AL	.
8BB	8B	.
8C#J	8c#J	.
=43	=43	=43
4DD 4D)	4d)	.
8r	8r	.
4r	4r	.
8r	8r	.
!!LO:LB:g=z
=44:|!|:	=44:|!|:	=44:|!|:
*>B	*>B	*>B
*clefG2	*	*
4d` 4f#`	8r	f
.	(8dddL	.
8r	8ddJ)	.
4g` 4b`	8r	.
.	(16dddLL	.
.	16eeeJ	.
8r	8ddd`J)	.
=45	=45	=45
4f#` 4a`	8r	.
.	(8dddL	.
8r	8ddJ)	.
4e` 4g`	8r	.
.	(16cccnLL	.
.	16dddJ	.
8r	8ccc`J)	.
=46	=46	=46
4d#` 4f#`	8r	.
.	(8bbL	.
8r	8bJ)	.
4B` 4d#`	8r	.
.	(16aaLL	.
.	16bbJ	.
8r	8aa`J)	.
=47	=47	=47
8r	4ee` 4gg`	.
*clefF4	*	*
(8EL	.	.
8EEJ)	8r	.
8r	4aa` 4ccc`	.
(16eLL	.	.
16f#J	.	.
8e`J)	8r	.
=48	=48	=48
8r	4gg` 4bb`	.
(8EL	.	.
8EEJ)	8r	.
8r	4ff#` 4aa`	.
(16eLL	.	.
16f#J	.	.
8e`J)	8r	.
=49	=49	=49
8r	4ee` 4gg`	.
(8EL	.	.
8EEJ)	8r	.
8r	4aa` 4ccc`	.
(16eLL	.	.
16f#J	.	.
8e`J)	8r	.
!!LO:LB:g=z
=50	=50	=50
8r	4gg` 4bb`	.
(8EL	.	.
8EEJ)	8r	.
8r	4ff#` 4aa`	.
(16eLL	.	.
16f#J	.	.
8e`J)	8r	.
=51	=51	=51
*	*^	*
8r	4.ryy	4ee` 4gg`	.
(8EL	.	.	.
8EEJ)	.	8r	.
8r	4.gg	8re	mf
(8eL	.	(16ccLL	.
.	.	16ddJ	.
8EJ)	.	[8ccJ)	.
=52	=52	=52	=52
8r	4.ffn	(8cc]L	.
(8dL	.	8b)	.
8DJ)	.	8b`J	.
8r	4.ee	8rg	.
(8cL	.	(16aLL	.
.	.	16bJ	.
8CJ)	.	[8aJ)	.
=53	=53	=53	=53
8r	4.dd	(8aL]	.
(8BL	.	8g#)	.
8BBJ)	.	8g#`J	.
4.A (4.c	8cc`>L	4.ryy	.
.	(16fnL	.	.
.	16gnJ	.	.
.	8f`J)	.	.
*	*v	*v	*
=54	=54	=54
4.G# 4.B)	8r	.
.	(8eL	.
.	8eeJ)	.
4.Gn (4.B	8r	.
.	(16eLL	.
.	16f#J	.
.	8e`J)	.
=55	=55	=55
4.F# 4.A)	8r	.
.	(8d#L	.
.	8dd#J)	.
4.E (4.G	8r	.
.	(16cLL	.
.	16dnJ	.
.	8c`J)	.
!!LO:LB:g=z
=56	=56	=56
4.D# 4.F#)	8r	.
.	(8BL	<
.	8bJ)	.
4.BB 4.D#	8r	.
.	(16aLL	.
.	16bJ	.
.	8a`J)	[
=57	=57	=57
(8EL	(16gLL	f
.	16e	.
8F#	16a	.
.	16e	.
8GJ	16b	.
.	16eJJ	.
8AL	16ccLL	.
.	16e	.
8GJ)	16b	.
.	16e	.
8r	16ee	.
.	16eJJ)	.
=58	=58	=58
(8EL	(16gLL	p
.	16e	.
8F#	16a	.
.	16e	.
8GJ	16b	.
.	16eJJ	.
8AL	16ccLL	.
.	16e	.
8GJ)	16b	.
.	16eJJ	.
8r	8ee`)	.
=59	=59	=59
(8BL	(16dd#LL	f
.	16b	.
8c#	16ee	.
.	16b	.
8d#J	16ff#	.
.	16bJJ	.
8eL	16ggLL	.
.	16b	.
8d#J)	16ff#	.
.	16b	.
8r	16bb	.
.	16bJJ)	.
=60	=60	=60
(8BBL	(16dd#LL	p
.	16b	.
8C#	16ee	.
.	16b	.
8D#J	16ff#	.
.	16bJJ	.
8EL	16ggLL	.
.	16b	.
8F#	16aa	.
.	16bJJ	.
8GJ)	8bb`)	.
!!LO:LB:g=z
=61	=61	=61
(8AL	8ccn (8bbL	mf
8B	8ddn 8aa	.
8cnJ	[8ee 8ggJ	.
8DnL	8ee] 8ff#L	.
8E	8dd 8gg	.
8F#J	8cc [8aaJ	.
=62	=62	=62
8GL	8b 8aaL]	.
8A	8cc 8gg	.
8BJ	[8dd 8ff#J	.
8CL	8dd] 8eeL	.
8D	8cc 8ff#	.
8EJ	8b [8ggJ	.
=63	=63	=63
8F#L	8a 8ggL]	.
8G	8b 8ff#	.
8AJ	[8cc 8eeJ	.
8BBL	8cc] 8dd#L	.
8C#	8b 8ee	.
8D#J)	8a 8ff#J)	.
=64	=64	=64
(16EELL	4.g 4.ff#	f
16E	.	.
16D#	.	.
16E	.	.
16D#	.	.
16EJJ	.	.
16CnLL	4.g 4.ee	.
16c	.	.
16B	.	.
16c	.	.
16B	.	.
16cJJ)	.	.
=65	=65	=65
(16AALL	4.fn 4.ee	.
16A	.	.
16G#	.	.
16A	.	.
16G#	.	.
16AJJ	.	.
16BBLL	4.f 4.ddn	.
16B	.	.
16A#	.	.
16B	.	.
16A#	.	.
16BJJ)	.	.
!!LO:LB:g=z
=66	=66	=66
*^	*	*
8rA	4.GG#	(16eLL>	.
.	.	16b	.
8G#L	.	16dd	.
.	.	16b	.
8G#J	.	16dd	.
.	.	16bJJ	.
8rA	4.AA	16eLL	.
.	.	16a	.
8AL	.	16cc	.
.	.	16a	.
8AJ	.	16cc	.
.	.	16aJJ)	.
=67	=67	=67	=67
8rA	4.FF#	(16dLL	.
.	.	16a	.
8F#L	.	16cc	.
.	.	16a	.
8F#J	.	16cc	.
.	.	16aJJ	.
8rA	4.GGn	16dLL	.
.	.	16g	.
8GnL	.	16b	.
.	.	16g	.
8GJ	.	16b	.
.	.	16gJJ	.
*v	*v	*	*
=68	=68	=68
8DD 8DL	8f#`) 8a`L	.
8DD 8D	8f# 8dd	.
8DD 8DJ	8f# 8ddJ	.
4DD 4D	4f# 4dd	.
8r	8r	.
=69	=69	=69
4G` 4B-`	8r	.
.	(8ggL	.
8r	8gJ)	.
4B-` 4d`	8r	.
.	(16ggLL	.
.	16aaJ	.
8r	8gg`J)	.
=70	=70	=70
*	*^	*
4c` 4e-`	4.ryy	8r	.
.	.	(8gg 8aaL	.
8r	.	8g 8aJ)	.
4d`	8r	8r	.
.	(16aaLL	8ff#L	.
.	16bb-J	.	.
8r	8aa`J)	8ff#J	.
*	*v	*v	*
!!LO:LB:g=z
=71	=71	=71
4G`	8r	.
.	8gg 8bb-L	.
8r	8gg 8bb-J	.
(8gL	8r	.
8GJ)	8bb-` 8ddd`L	.
8r	8b-` 8dd`J	.
=72	=72	=72
4c`	8r	.
.	(16ccc 16eee-LL	.
.	16bbn 16dddJ	.
8r	8ccc` 8eee-`J)	.
(8fnL	8r	.
8FnJ)	8aa` 8ccc`L	.
8r	8a` 8cc`J	.
=73	=73	=73
4B-`	8r	.
.	(16bb- 16dddLL	.
.	16aa 16ccc#J	.
8r	8bb-` 8ddd`J)	.
(8e-L	8r	.
8E-J)	8gg` 8bb-`L	.
8r	8g` 8b-`J	.
=74	=74	=74
4A	8r	.
.	16aa (16cccnLL	.
.	16gg 16bb-J	.
8r	8aa` 8ccc`J)	.
(8dL	8r	.
8DJ)	8ff#X` 8aa`L	.
8r	8f#X 8aJ	.
=75	=75	=75
*	*^	*
4G	8r	8r	.
.	8bb-L	(16ggLL	.
.	.	16ddJ	.
8r	8bb-J	8gg`J)	.
4fn	8r	8r	.
.	8bbnL	(16aa-LL	.
.	.	16ddJ	.
8r	8bbJ	8aa-`J)	.
=76	=76	=76	=76
4en	8r	8r	.
.	8cccL	(16ggLL	.
.	.	16ccJ	.
8r	8cccJ	8gg`J)	.
4e-	8r	8r	.
.	8ccc#L	(16bb-LL	.
.	.	16ggJ	.
8r	8ccc#J	8bb-`J)	.
!!LO:LB:g=z
=77	=77	=77	=77
*^	*	*	*
4.ryy	4d	8r	8r	.
.	.	8dddL	(16ff#XLL	.
.	.	.	16ddJ	.
.	8r	8dddJ	8ff#`J)	.
(4.F#	[4.D	4.ryy	(16ddLL	.
.	.	.	16ff#	.
.	.	.	16ddd	.
.	.	.	16ff#	.
.	.	.	16ddd	.
.	.	.	16ff#JJ	.
*	*	*v	*v	*
=78	=78	=78	=78
4.G	2.D]	16eeLL	.
.	.	16gg	.
.	.	16ccc#	.
.	.	16gg	.
.	.	16ccc#	.
.	.	16ggJJ	.
4.A	.	16ddLL	.
.	.	16ff#	.
.	.	16cccn	.
.	.	16ff#	.
.	.	16ccc	.
.	.	16ff#JJ	.
*v	*v	*	*
=79	=79	=79
4G` 4Bn`)	8gg')	p
.	(8ggL	.
8r	8gJ)	.
4c` 4e`	8r	.
.	(16ggLL	.
.	16aaJ	.
8r	8gg`J)	.
=80	=80	=80
4B` 4d`	8r	.
.	(8ggL	.
8r	8gJ)	.
4A` 4c`	8r	.
.	(16ggLL	.
.	16aaJ	.
8r	8gg`J)	.
=81	=81	=81
4G` 4B`	8r	.
.	(8ggL	.
8r	8gJ)	.
(4.BB 4.B	8r	.
.	(16ff#LL	f
.	16gg	.
.	16bb	.
.	16ggJJ	.
!!LO:LB:g=z
=82	=82	=82
4.C 4.c	8ee`)	.
.	(16gg#LL	.
.	16aa	.
.	16ccc	.
.	16aaJJ	.
4.D 4.d	8dd`L)	.
.	8dd` 8ddd`	.
.	8cc` 8ccc`J	.
=83	=83	=83
4.GG 4.G)	8cc (8cccL	.
.	8b 8bb)	.
.	8a` 8aa`J	.
(4.BB 4.B	8g` 8gg`	.
.	(16ff#LL	.
.	16gg	.
.	16bb	.
.	16ggJJ	.
=84	=84	=84
4.C 4.c	8ee`)	.
.	(16gg#LL	.
.	16aa	.
.	16ccc	.
.	16aaJJ	.
4.D 4.d	8dd`L	.
.	8dd` 8ddd`)	.
.	8cc` 8ccc`J	.
=85	=85	=85
4.GG 4.G)	4.b 4.bb	.
*clefG2	*	*
4B 4d	8r	.
.	(16ff#LL	p
.	16gg	.
8r	16bb	.
.	16ggJJ	.
=86	=86	=86
4c 4e	8ee`)	.
.	(16gg#LL	.
.	16aa	.
8r	16ccc	.
.	16aaJJ	.
4d	8dd`L	.
.	8ddd`)	.
8f#`	8aa` 8ccc`J	.
=87	=87	=87
(8gL	8aa (8cccL	.
8b	8gg 8bb	.
8ddJ)	8ff# 8aaJ)	.
4r	8dd`L	.
.	8ccc`	.
8g`	8bb`J	.
!!LO:LB:g=z
=88	=88	=88
.	(bb8qqP	.
4cc (4ee	(4aap)	.
8b 8dd)	8gg)	.
4r	8dd`L	.
.	8ddd`	.
8f#`	8aa` 8ccc`J	.
=89	=89	=89
(8gL	8aa (8cccL	.
8b	8gg 8bb	.
8ddJ)	8ff# 8aaJ)	.
4r	8dd`L	.
.	8ccc`	.
8g`	8bb`J	.
=90	=90	=90
*^	*	*
.	.	(bb8qqP	.
4.ryy	4cc (4ee	(4aap)	.
.	8b 8dd)	8gg)	.
4a (4cc	4.d	(16ff#LL	.
.	.	16dd	mf
.	.	16ff#	.
.	.	16ddJ	.
8g 8b)	.	8gg`J)	.
=91	=91	=91	=91
*	*	*^	*
4f# (4a	4.d	(8cccL	16aaLL	<
.	.	.	16dd	.
.	.	8ccc	16aa	.
.	.	.	16ddJ	.
8g 8b)	.	8bbJ)	8ggJ	.
4a (4cc	4.d	4.ryy	(16ff#LL	.
.	.	.	16dd	.
.	.	.	16ff#	.
.	.	.	16ddJ	.
8g 8b)	.	.	8gg`J)	.
=92	=92	=92	=92	=92
4f# (4a	4.d	(8cccL	16aaLL	.
.	.	.	16dd	.
.	.	8ccc	16aa	.
.	.	.	16ddJ	.
8g 8b)	.	8bb`J)	8ggJ	.
4a (4cc	4.d	4.ryy	(16ff#LL	.
.	.	.	16dd	.
.	.	.	16ff#	.
.	.	.	16ddJ	.
8g 8b)	.	.	8gg`J)	.
!!LO:LB:g=z
=93	=93	=93	=93	=93
4f# (4a	4.d	(8cccL	16aaLL	f
.	.	.	16dd	.
.	.	8ccc	16aa	.
.	.	.	16ddJ	.
8g)	.	8bb`J)	8ggJ	.
4f# (4a	4.d	(8cccL	16aaLL	.
.	.	.	16dd	.
.	.	8ccc	16aa	.
.	.	.	16ddJ	.
8g)	.	8bb`J)	8ggJ	.
*v	*v	*	*	*
*	*v	*v	*
=94	=94	=94
8d` 8f#` 8a`L	8ff#` 8aa`L	.
8d 8f# 8a	8ff# 8ddd	.
8d 8f# 8aJ	8ff# 8dddJ	.
4d 4f# 4a	4ff# 4ddd	.
8r	8r	.
=95	=95	=95
!	!	!LO:DY:rj
8r	4B`> 4g`>	f
*clefF4	*	*
(8GGL	.	.
8GGGJ)	8r	.
8r	4e`> 4cc`>	.
(16GLL	.	.
16F#J	.	.
8G`J)	8r	.
=96	=96	=96
8r	4d`> 4b`>	.
(8GGL	.	.
8GGGJ)	8r	.
8r	4c`> 4f#`>	.
(16GLL	.	.
16F#J	.	.
8G`J)	8r	.
=97	=97	=97
8r	4B`> 4g`>	.
(8GGL	.	.
8GGGJ)	8r	.
8r	4e 4cc	.
(16GLL	.	.
16F#J	.	.
8G`J)	8r	.
=98	=98	=98
8r	4d 4b	.
(8GGL	.	.
8GGGJ)	8r	.
8r	4c 4f#	.
(16GLL	.	.
16F#J	.	.
8G`J)	8r	.
!!LO:LB:g=z
=99	=99	=99
8r	4B 4g	.
(8GGL	.	.
8GGGJ)	8r	.
8r	4g 4b	.
(16ELL	.	.
16D#J	.	.
8E`J)	8r	.
=100	=100	=100
8r	4g 4a	.
(16CLL	.	.
16BBJ	.	.
8C`J)	8r	.
8r	4g 4ee	.
(16C#LL	.	.
16BBJ	.	.
8C#`J)	8r	.
=101	=101	=101
(8DL	(16f#LL	.
.	16d	.
8E	16g	.
.	16d	.
8F#J	16a	.
.	16dJJ	.
8GL	16bLL	.
.	16d	.
8F#J)	16a	.
.	16d	.
8r	16dd	.
.	16dJJ)	.
=102	=102	=102
(8DL	(16f#LL	p
.	16d	.
8E	16g	.
.	16d	.
8F#J	16a	.
.	16dJJ	.
8GL	16bLL	.
.	16d	.
8F#J)	16a	.
.	16d	.
8r	16dd	.
.	16dJJ)	.
=103	=103	=103
(8DL	(16f#LL	f
.	16d	.
8E	16g	.
.	16d	.
8F#J	16a	.
.	16dJJ	.
8GL	16bLL	.
.	16d	.
8A	16ccn	.
.	16d	.
8BJ)	16dd	.
.	16dJJ)	.
!!LO:LB:g=z
=104	=104	=104
(4.c	(16eeLL>	.
.	16cc	.
.	16b	.
.	16a	.
.	16g#	.
.	16aJJ	.
4.B	16ddLL	.
.	16b	.
.	16a	.
.	16gn	.
.	16f#	.
.	16gJJ)	.
=105	=105	=105
!!!ONB: Cross-staff slur starts here.
4.A 4.c# 4.e)	16ggLL	.
.	16aa	.
.	16gg	.
.	16ff#	.
.	16ee	.
.	16ddJJ	.
8r	16cc#LL	.
.	16b	.
16r	16aJJ	.
*clefG2	*	*
16gLL	16r	.
16f#	8r	.
16eJJ	.	.
=106	=106	=106
4.d 4.f# 4.a	(16cccnLL	.
.	16ddd	.
.	16ccc	.
.	16bb	.
.	16aa	.
.	16ggJJ	.
4r	16ff#LL	.
.	16ee	.
.	16dd	.
.	16cc	.
8r	16b	.
.	16aJJ	.
*clefF4	*	*
=107	=107	=107
(8GL	(16bLL<)	.
.	16g	.
8A	16cc	.
.	16g	.
8BJ	16dd	.
.	16gJJ	.
8cL	16eeLL	.
.	16g	.
8d	16ff#	.
.	16gJJ	.
8eJ	8gg`)	.
=108	=108	=108
4.d)	[4.g [4.b	p
4.D	((8g] 8bL]	.
.	8a 8cc))	.
.	8f#` 8a`J	.
!!LO:LB:g=z
=109	=109	=109
*^	*	*
4.ryy	4G	4g	.
.	8r	8gg'	.
*clefG2	*	*	*
[4.g	(4c	(8aL	.
.	.	8cc	.
.	8d	8bJ	.
=110	=110	=110	=110
4.g]	4e	8ddL	.
.	.	8cc)	.
.	8d)	8b`J	.
[4.g	(4c	(8aL	.
.	.	8ee	.
.	8d	8bJ	.
=111	=111	=111	=111
4.g]	4e	8ddL	.
.	.	8cc)	.
.	8d)	8b`J	.
[4.g	(4c#	(8aL	.
.	.	8gg	.
.	8d	8bJ	.
=112	=112	=112	=112
4.g]	4.e)	8ddL	<
.	.	8cc#)	.
.	.	[8eeJ	.
(4.a	(4.f#	(8eeL]	.
.	.	8dd)	.
.	.	[8cccnJ	[
=113	=113	=113	=113
4.g)	4.g)	16ccc]LL	f
.	.	(16bb	.
.	.	16ddd	.
.	.	16ccc	.
.	.	16bb	.
.	.	16aaJJ	.
(4.B 4.d	4.ryy	16ggLL	.
.	.	16ff#	.
.	.	16ee	.
.	.	16dd	.
.	.	16cc	.
.	.	16bJJ	.
*v	*v	*	*
=114	=114	=114
4c 4e)	8a`L)	>
.	8bb (8ddd#	.
8r	8ccc 8eeeJ)	.
4r	8ccc (8eeeL	.
.	8bb 8dddn	.
8r	8aa 8cccJ)	]
!!LO:LB:g=z
=115	=115	=115
4.d 4.g	(8bbsSsSL	mf
.	8ddd)	.
.	8gg`J	.
4.d 4.f#	(8aasSSSL	.
.	8ccc)	.
.	8ff#`J	.
*clefF4	*	*
=116	=116	=116
8E 8eL	(16ggLL	f
.	16aa	.
8D 8d	16ff#	.
.	16ggJ	.
8C 8cJ	8ee`J)	.
8BB 8BL	(16ddLL	.
.	16ee	.
8AA 8A	16cc	.
.	16ddJ	.
8GG 8GJ	8b`J)	.
=117	=117	=117
2.C 2.c	8a`L	<
.	8cc`	.
.	8ee`J	.
.	8aa`L	.
.	(8cccsSSs	.
.	8eee`J)	[
*clefG2	*	*
=118	=118	=118
4.d 4.b	(8dddL	>
.	8bb	.
.	8ggJ)	.
4.d 4.a	(8cccL	.
.	8aa	.
.	8ff#J)	]
=119	=119	=119
(8gL	(8ggL	p
8d	8dd	.
8BJ)	8bJ)	.
(8eL	(8eeL	.
8c	8cc	.
8AJ)	8aJ)	.
*clefF4	*	*
=120	=120	=120
(8dL	(8ddL	.
8B	8b	.
8GJ	8gJ	.
8DL	8dL	.
8E	8e	.
8F#J	8f#J	.
=121	=121	=121
4GG 4G)	4g)	.
8r	8r	.
4r	4r	.
8r	8r	.
==:|!	==:|!	==:|!
*-	*-	*-
!!!RDF**kern: > = above
!!!RDF**kern: < = below
!!!RDF**kern: N = linked
!!!ONB: linked (cross-staff slurs not encoded)
!!!PPR: Universal Edition 1
!!!PTL: Haydn Piano Sonatas, Vol. 3, No. 24
!!!YOY: 1901
!!!ONB: Stich und Druck von Jos. Eberle & Co. Wien VII. Seidengasse 3-9
!!!ONM-ue: III:24.3
!!!YEC: 2021 Craig Stuart Sapp
!!!YEM: Licence: (CC BY-NC-SA 4.0) https://creativecommons.org/licenses/by-nc-sa/4.0
!!!YER: 2021
!!!ENC: Craig Stuart Sapp
!!!END: 2009/08/26/
!!!EED: Craig Stuart Sapp
!!!EEV: 2021/01/25
!!!YEC: 2021 Craig Stuart Sapp
!!!URL: https://github.com/craigsapp/haydn-keyboard-sonatas
!!!URL-vhv: https://verovio.humdrum.org?file=haydn/sonatas/sonata52-3.krn
!!!URL-pdf: https://github.com/craigsapp/haydn-keyboard-sonatas/raw/master/reference-edition/sonata52-3.pdf
!!!title: @{OTL}, mvmt. @{OMV} (@{SCT}), UE @ONM-ue
